!!!OTL: 543a. Schoen ist die Jugend.
!!!ARE: Europa, Mitteleuropa, Deutschland, Hessen, Lahngegend; Odenwald
!!!SCT: E0543
!!!TXL: @@DE
!!!YEM: Copyright 1995, estate of Helmut Schaffrath.
**kern	**text
*ICvox	*
!! Mixed meters:  3/4; 4/4
*M3/4	*
*k[b-e-]	*
*B-:	*
!LO:TX:a:t=Etwa bewegt.	!
!LO:TX:a:t=Mündlich aus der Lahngegend u. Oberheſſen, vom Rhein u. Odenwald 1880-90.	!
{8f	Schön
8d	iſt
8e-	die
=1	=1
8fL	Ju-
8ddJ	.
8dd	-gend
8cc	bei
8b-	fro-
8g	-hen
=2	=2
4f	Ʒei-
8d}	-ten,
{8f	ſchön
8g	iſt
8f	die
=3	=3
8fL	Ju-
8ccJ	.
8cc	-gend,
8ee-	ſie
8dd	kommt
8cc	nicht
=4	=4
4b-	mehr!
8r}	.
!LO:TX:a:t=Refr.	!
{8f	Drum
8g	ſag
8f	ichs
=5	=5
8.cc	noch
16cc	ein-
8cc	-mal
8ee-	ſchön
8dd	ſind
8cc	die
=6	=6
(8.dd	Ju-
16ff)	-gend-
8ff}	-jahr;
{8b-/	ſchön
8b-/	iſt
8b-/	die
=7	=7
*M4/4	*
*met(c)	*
8g/L	Ju-
8ee-J	.
8dd	-gend,
8cc	ſie
4dd	kommt
4cc	nicht
=8	=8
*M3/4	*
4b-	mehr.
8r}	.
{8f	Drum
8g	ſag
8f	ichs
=9	=9
8.cc	noch
16cc	ein-
8cc	-mal
8ee-	ſchön
8dd	ſind
8cc	die
=10	=10
(8.dd	Ju-
16ff)	-gend-
8ff}	-jahr;
{8b-/	ſchön
8b-/	iſt
8b-/	die
=11	=11
*M4/4	*
*met(c)	*
8g/L	Ju-
8ee-J	.
8dd	-gend,
8cc	ſie
4dd	kommt
4cc	nicht
=12	=12
4b-	mehr.
8r}	.
==	==
!!!AGN: Liebes - Lied
!!!ONB: ESAC (Essen Associative Code) Database: ERK1
!!!AMT: irregular
!!!AIN: vox
!!!EED: Helmut Schaffrath
!!!EEV: 1.0
!!!GTL: Liebeslieder [Neuere (aus dem 18. bis 19. Jahrh.) - Liebeslust]
!!!URL-scan: https://rosdok.uni-rostock.de/mcrviewer/recordIdentifier/rosdok_ppn745177662/iview2/phys_0371.iview2?x=-128.77276441889308&y=1771.3796762127895&scale=0.5870222003877485&rotation=0&layout=singlePageLayout
!!!ENC: Anna Maria Matuszewska
!!!EEV: 2024/10/12
*-	*-
